!!!COM: Palestrina, Giovanni Perluigi da
!!!OPR: In te Domine speravi (1593-4)
!!!OTL: Agnus II
**kern	**kern	**kern	**kern	**kern
*Ibass	*Itenor	*Itenor	*Icalto	*Icant
!Bassus	!Tenor 2	!Tenor 1	!Altus	!Cantus
*clefF4	*clefGv2	*clefGv2	*clefG2	*clefG2
*k[]	*k[]	*k[]	*k[]	*k[]
*D:dor	*D:dor	*D:dor	*D:dor	*D:dor
*M4/2	*M4/2	*M4/2	*M4/2	*M4/2
=1	=1	=1	=1	=1
0r	0r	0r	1r	1a
.	.	.	1d	1a
=2	=2	=2	=2	=2
0r	0r	0r	1d	1dd
.	.	.	1a	2.cc
.	.	.	.	4dd
=3	=3	=3	=3	=3
0r	0r	0r	2.g	4ee
.	.	.	.	4ff
.	.	.	.	2.gg
.	.	.	4a	.
.	.	.	2b	.
.	.	.	.	4ff
.	.	.	[2cc	4ee
.	.	.	.	4dd
=4	=4	=4	=4	=4
0r	0r	0r	4cc]	2ee
.	.	.	4b	.
.	.	.	4a	2.ff
.	.	.	4g	.
.	.	.	2f	.
.	.	.	.	4ee
.	.	.	2g	[2dd
=5	=5	=5	=5	=5
1r	0r	1A	1e	2dd]
.	.	.	.	2cc
1D	.	1A	2.d	[1ff
.	.	.	4e	.
=6	=6	=6	=6	=6
1D	0r	1d	4f	2ff]
.	.	.	4g	.
.	.	.	2.a	4ee
.	.	.	.	4dd
1A	.	2.c	.	2ee
.	.	.	4g	.
.	.	.	4e	2cc
.	.	4d	4f	.
=7	=7	=7	=7	=7
2.G	0r	4e	1g	2.b
.	.	4f	.	.
.	.	1g	.	.
4A	.	.	.	4cc
4B	.	.	1d	1dd
4c	.	.	.	.
[2d	.	2f	.	.
=8	=8	=8	=8	=8
2d]	1A	0e	2r	0ee
4c#	.	.	2.a	.
4B	.	.	.	.
1c#	1A	.	.	.
.	.	.	4g	.
.	.	.	2e	.
=9	=9	=9	=9	=9
2d	1d	2r	2f	1dd
2B-	.	2d	2g	.
1A	2.c	2e	2a	2r
.	.	[2c	[2cc	[2ee
.	4d	.	.	.
=10	=10	=10	=10	=10
0r	4e	4c]	4cc]	4ee]
.	4f	4d	4b	4dd
.	1g	1e	2g	2b
.	.	.	1a	2cc
.	2f	[2d	.	2dd
=11	=11	=11	=11	=11
1A	0e	2d]	2r	0ee
.	.	4c#	2.a	.
.	.	4B	.	.
1A	.	1c#	.	.
.	.	.	4g	.
.	.	.	2e	.
=12	=12	=12	=12	=12
1d	2r	4d	4f	2.a
.	.	4e	4g	.
.	2d	4f	2a	.
.	.	4g	.	4b
4c	2e	[1a	2.A	4cc
4B	.	.	.	4dd
4A	[2c	.	.	[2ee
4G	.	.	4B	.
=13	=13	=13	=13	=13
2.A	4c]	1a]	2.c	2ee]
.	4d	.	.	.
.	1e	.	.	2cc
4G	.	.	4B	.
2F	.	1r	2A	1dd
2G	[2d	.	2B	.
=14	=14	=14	=14	=14
0E	2d]	1r	0G	0ee
.	4c#	.	.	.
.	4B	.	.	.
.	1c#	1g	.	.
=15	=15	=15	=15	=15
1D	4d	2f	1A	2a
.	4e	.	.	.
.	4f	2d	.	2dd
.	4g	.	.	.
2r	[1a	1f	1r	2cc
2d	.	.	.	2a
=16	=16	=16	=16	=16
2c	1a]	1e	2r	1cc
2A	.	.	2a	.
2B	1r	2.d	1g	1b
2G	.	.	.	.
.	.	4e	.	.
=17	=17	=17	=17	=17
1d	1r	1f	1a	2.a
.	.	.	.	4b
1c	1g	1e	1r	4cc
.	.	.	.	4dd
.	.	.	.	2ee
=18	=18	=18	=18	=18
2d	2f	1d	2r	2a
2G	2d	.	2dd	2b-
2A	1f	1r	2cc	2a
4F	.	.	2a	[2cc
4G	.	.	.	.
=19	=19	=19	=19	=19
4A	1e	0r	1cc	4cc]
4B	.	.	.	4dd
2c	.	.	.	4ee
.	.	.	.	4ff
1G	2.d	.	1b	1gg
.	4e	.	.	.
=20	=20	=20	=20	=20
2.F	1f	0r	1a	2cc
.	.	.	.	1dd
4G	.	.	.	.
1A	1e	.	2r	.
.	.	.	2a	2cc
=21	=21	=21	=21	=21
2r	1d	1r	2f	2dd
2G	.	.	2d	2b-
2F	1r	1d	2f	[1a
2D	.	.	[2f	.
=22	=22	=22	=22	=22
1F	0r	2c	4f]	1a]
.	.	.	4g	.
.	.	2A	1a	.
1E	.	2B	.	1r
.	.	2c#	2g	.
=23	=23	=23	=23	=23
2.D	0r	2.d	4f	2r
.	.	.	4e	.
.	.	.	4f	2dd
4E	.	8c	4g	.
.	.	8B-	.	.
1F	.	2A	2a	2cc
.	.	[2d	2f	2a
=24	=24	=24	=24	=24
1E	1r	2d]	1g	2b
.	.	2c	.	2cc
1D	1d	1f	[1a	1dd
=25	=25	=25	=25	=25
2.A	2c	0e	1a]	0ee
.	2A	.	.	.
8G	.	.	.	.
8F	.	.	.	.
1E	2B	.	2r	.
.	2c#	.	2g	.
=26	=26	=26	=26	=26
1D	2.d	0r	2f	0a
.	.	.	2d	.
.	8c	.	.	.
.	8B-	.	.	.
1D	2A	.	1f	.
.	[2d	.	.	.
=27	=27	=27	=27	=27
1A	2d]	0r	1e	1a
.	2c	.	.	.
1D	1f	.	2d	2.a
.	.	.	[2a	.
.	.	.	.	4b
=28	=28	=28	=28	=28
1r	0e	0r	2a]	2cc
.	.	.	2g	2.b
1A	.	.	1a	.
.	.	.	.	4a
.	.	.	.	[2a
=29	=29	=29	=29	=29
1B-	0r	2r	1d	2a]
.	.	2d	.	2g
2A	.	1f	2r	1a
2F	.	.	2a	.
=30	=30	=30	=30	=30
2G	0r	2e	2b-	2r
2A	.	2c#	2a	2ee
2D	.	2d	2f	2ff
[2A	.	2e	[2cc	2ee
=31	=31	=31	=31	=31
4A]	0r	2A	4cc]	2cc
4G	.	.	4b-	.
2F	.	1d	2a	2dd
1E	.	.	1g	1ee
.	.	2c#	.	.
=32	=32	=32	=32	=32
1D	2r	1d	2.f	2a
.	2d	.	.	2dd
.	.	.	4g	.
1r	1f	1r	4a	2cc
.	.	.	4b	.
.	.	.	[2cc	2a
=33	=33	=33	=33	=33
1r	2e	2r	4cc]	1cc
.	.	.	4b	.
.	2c	2e	1a	.
2r	2d	2f	.	1b
2E	2e	2e	2g#	.
=34	=34	=34	=34	=34
2F	2A	2c	2a	1a
2D	1d	2d	2f	.
1A	.	1e	1e	2r
.	2c#	.	.	2ee
=35	=35	=35	=35	=35
4D	1d	0r	1a	1ff
4E	.	.	.	.
4F	.	.	.	.
4G	.	.	.	.
1A	1r	.	1cc	2ee
.	.	.	.	2cc
=36	=36	=36	=36	=36
2G	2r	0r	2b	2dd
2c	2e	.	2g	2ee
1A	2f	.	4a	4cc
.	.	.	4b	4dd
.	2e	.	[2cc	4ee
.	.	.	.	4ff
=37	=37	=37	=37	=37
0r	2c	1r	4cc]	2ee
.	.	.	4b	.
.	2d	.	1a	4dd
.	.	.	.	4cc
.	1e	2r	.	1b
.	.	2e	2g#	.
=38	=38	=38	=38	=38
1.A	0r	2f	2r	4a
.	.	.	.	4b
.	.	2e	2a	4cc
.	.	.	.	4dd
.	.	2c	2cc	2ee
2B	.	2d	2b	2dd
=39	=39	=39	=39	=39
2c	0r	2e	2g	1cc
2F	.	2f	2a	.
2G	.	1e	2b	2r
2A	.	.	2cc	2ee
=40	=40	=40	=40	=40
1D	1r	2.d	4b	1ff
.	.	.	4a	.
.	.	.	1a	.
.	.	4c	.	.
1E	2r	1B	.	1ee
.	2e	.	2g#	.
=41	=41	=41	=41	=41
1.A	2f	2A	1a	2.cc
.	2e	2.a	.	.
.	.	.	.	4dd
.	2c	.	1r	2ee
.	.	8g	.	.
.	.	8f	.	.
2B-	2d	2g	.	2dd
=42	=42	=42	=42	=42
2A	2e	1a	2r	2cc#
2F	2f	.	2a	1dd
2G	1e	2r	2b-	.
2A	.	2A	2a	2cc#
=43	=43	=43	=43	=43
2D	[0d	2B-	2.f	[0dd
2D	.	2A	.	.
.	.	.	4g	.
2D	.	2F	4a	.
.	.	.	8g	.
.	.	.	8a	.
[2G	.	2G	[2b-	.
=44	=44	=44	=44	=44
2G]	1d_	1A	2b-]	1dd_
2F#	.	.	2.a	.
1G	1d_	1B-	.	1dd_
.	.	.	4g	.
.	.	.	[2g	.
=45	=45	=45	=45	=45
0D	0d]	0A	2g]	0dd]
.	.	.	4f#	.
.	.	.	4e	.
.	.	.	1f#	.
==	==	==	==	==
*-	*-	*-	*-	*-
!!!CDT: 1525/^1526/-1594/2/2
!!!OCY: Italia
!!!AGN: Mass (Parody)
!!!AST: renaissance, vocal
!!!ASW: Motet (?Lhéritier)
!!!PWK: Masses, Book 6
!!!RNB: Cadence finals: A
!!!YOR: Le Opere Complete, v. 21, p. 26
!!!YOO: Rome, Italy: Fratelli Scalera
!!!END: 1992//
!!!EED: John Miller
!!!YEC: Copyright 2000, John Miller
!!!YEN: United States of America
!!!YEM: Rights to all derivative electronic formats reserved.
!!!YEM: Refer to licensing agreement for further details.
!!!YEM: This file must be accompanied by the licensing agreement.
!!!YEM: A copy of the licensing agreement may be found at http://www.music-cog.ohio-state.edu/HumdrumDatabases/Palestrina/license.txt
!!!EMD: converted to Humdrum by Bret Aarden
